symbolic/64x64/apps/dash-qt.svg

<svg xmlns="http://www.w3.org/2000/svg" width="64" height="64" version="1.1">
 <path style="opacity:.2" d="m32 5a28 28 0 0 0 -28 28 28 28 0 0 0 28 28 28 28 0 0 0 28 -28 28 28 0 0 0 -28 -28z"/>
 <path style="fill:#1c75bc" d="m32 4a28 28 0 0 0 -28 28 28 28 0 0 0 28 28 28 28 0 0 0 28 -28 28 28 0 0 0 -28 -28z"/>
 <path style="opacity:.2" d="m20.890454 22-1.722613 6h23.908363l-4.153742 10h-23.199848l-1.722614 6h24.803472c2.762606-0.05008 5.602444-1.713738 6.687638-4.3479l4.337632-12.949708c1.023986-4.192832-2.756916-4.702392-5.681648-4.702392zm-4.813582 8-2.076872 6h13.845812l2.076872-6z"/>
 <path style="fill:#ffffff" d="m20.890454 21-1.722613 6h23.908363l-4.153742 10h-23.199848l-1.722614 6h24.803472c2.762606-0.05008 5.602444-1.713738 6.687638-4.3479l4.337632-12.949708c1.023986-4.192832-2.756916-4.702392-5.681648-4.702392zm-4.813582 8-2.076872 6h13.845812l2.076872-6z"/>
 <path style="opacity:.2;fill:#ffffff" d="m32 4a28 28 0 0 0 -28 28 28 28 0 0 0 0.0214844 0.40625 28 28 0 0 1 27.978516 -27.40625 28 28 0 0 1 27.978516 27.578125 28 28 0 0 0 0.021484 -0.578125 28 28 0 0 0 -28 -28z"/>
</svg>

<svg xmlns="http://www.w3.org/2000/svg" width="64" height="64"><path style="opacity:.2" d="M32 5A28 28 0 0 0 4 33a28 28 0 0 0 28 28 28 28 0 0 0 28-28A28 28 0 0 0 32 5z"/><path style="fill:#1c75bc" d="M32 4A28 28 0 0 0 4 32a28 28 0 0 0 28 28 28 28 0 0 0 28-28A28 28 0 0 0 32 4z"/><path style="opacity:.2" d="m20.89 22-1.722 6h23.908l-4.154 10h-23.2L14 44h24.803c2.763-.05 5.603-1.714 6.688-4.348l4.338-12.95C50.853 22.51 47.072 22 44.147 22zm-4.813 8L14 36h13.846l2.077-6z"/><path style="fill:#fff" d="m20.89 21-1.722 6h23.908l-4.154 10h-23.2L14 43h24.803c2.763-.05 5.603-1.714 6.688-4.348l4.338-12.95C50.853 21.51 47.072 21 44.147 21zm-4.813 8L14 35h13.846l2.077-6z"/><path style="opacity:.2;fill:#fff" d="M32 4A28 28 0 0 0 4 32a28 28 0 0 0 .021.406A28 28 0 0 1 32 5a28 28 0 0 1 27.979 27.578A28 28 0 0 0 60 32 28 28 0 0 0 32 4z"/></svg>
